icons/label-cross.svg

<svg xmlns="http://www.w3.org/2000/svg" width="24" height="24" viewBox="0 0 24 24">
  <path d="M15.0924635,4 C15.6691887,4 16.2178408,4.24896086 16.5976169,4.68299078 L21.8476169,10.6829908 C22.5074124,11.4370428 22.5074124,12.5629572 21.8476169,13.3170092 L16.5976169,19.3170092 C16.2178408,19.7510391 15.6691887,20 15.0924635,20 L4,20 C2.8954305,20 2,19.1045695 2,18 L2,6 C2,4.8954305 2.8954305,4 4,4 L15.0924635,4 Z M8.61289944,9.20970461 C8.22060824,8.90467972 7.65337718,8.93240926 7.29289322,9.29289322 C6.90236893,9.68341751 6.90236893,10.3165825 7.29289322,10.7071068 L7.29289322,10.7071068 L8.585,12 L7.29289322,13.2928932 L7.20970461,13.3871006 C6.90467972,13.7793918 6.93240926,14.3466228 7.29289322,14.7071068 C7.68341751,15.0976311 8.31658249,15.0976311 8.70710678,14.7071068 L8.70710678,14.7071068 L10,13.415 L11.2928932,14.7071068 L11.3871006,14.7902954 C11.7793918,15.0953203 12.3466228,15.0675907 12.7071068,14.7071068 C13.0976311,14.3165825 13.0976311,13.6834175 12.7071068,13.2928932 L12.7071068,13.2928932 L11.415,12 L12.7071068,10.7071068 L12.7902954,10.6128994 C13.0953203,10.2206082 13.0675907,9.65337718 12.7071068,9.29289322 C12.3165825,8.90236893 11.6834175,8.90236893 11.2928932,9.29289322 L11.2928932,9.29289322 L10,10.585 L8.70710678,9.29289322 Z"/>
</svg>

<svg xmlns="http://www.w3.org/2000/svg" viewBox="0 0 24 24">
  <path d="M15.1 4a2 2 0 0 1 1.5.68l5.25 6a2 2 0 0 1 0 2.64l-5.25 6a2 2 0 0 1-1.5.68H4a2 2 0 0 1-2-2V6c0-1.1.9-2 2-2h11.1zM8.6 9.21a1 1 0 0 0-1.32 1.5L8.6 12l-1.3 1.3-.08.09a1 1 0 0 0 1.5 1.32L10 13.4l1.3 1.3.09.08a1 1 0 0 0 1.32-1.5L11.4 12l1.3-1.3.08-.09a1 1 0 0 0-1.5-1.32L10 10.6 8.7 9.3z"/>
</svg>
